outputs/icons/enterprise/shape_recognition_round.svg

<svg xmlns="http://www.w3.org/2000/svg" width="1200" height="1200" fill="none"><path fill="#000" d="M550 325c0 124.264-100.736 225-225 225S100 449.264 100 325s100.736-225 225-225 225 100.736 225 225M550 875c0 124.265-100.736 225-225 225S100 999.265 100 875s100.736-225 225-225 225 100.735 225 225M875 1100c124.265 0 225-100.735 225-225S999.265 650 875 650 650 750.735 650 875s100.735 225 225 225M650 100h450v450H650z"/></svg>

<svg width="1200" height="1200" viewBox="0 0 1200 1200" fill="none" xmlns="http://www.w3.org/2000/svg"><path d="M550 325C550 449.264 449.264 550 325 550C200.736 550 100 449.264 100 325C100 200.736 200.736 100 325 100C449.264 100 550 200.736 550 325Z" fill="black"/><path d="M550 875C550 999.265 449.264 1100 325 1100C200.736 1100 100 999.265 100 875C100 750.735 200.736 650 325 650C449.264 650 550 750.735 550 875Z" fill="black"/><path d="M875 1100C999.265 1100 1100 999.265 1100 875C1100 750.735 999.265 650 875 650C750.735 650 650 750.735 650 875C650 999.265 750.735 1100 875 1100Z" fill="black"/><path d="M650 100H1100L1100 550H650V100Z" fill="black"/></svg>
